!!!OTL@@DE: Zufriedenheit
!!!ONB: 1. Melodie
!!!COM: Neefe, Christian Gottlob
!!!ODT: 1776
!!!OMD: M&auml;ssig
!!!LYR: Miller, Joh. Martin
!!!LDT: 1776
!!!OCL: Erk, Ludwig
!!!GCO: Deutscher Liederschatz, Band 1
**kern	**kern	**kern
*staff3	*staff2	*staff1
*Ipiano	*Ipiano	*Ivox
*>[A,A,B]	*>[A,A,B]	*>[A,A,B]
*>norep[A,B]	*>norep[A,B]	*>norep[A,B]
*>A	*>A	*>A
*clefF4	*clefG2	*clefG2
*k[b-]	*k[b-]	*k[b-]
*F:	*F:	*F:
*met(C)	*met(C)	*met(C)
*M4/4	*M4/4	*M4/4
*MM72	*MM72	*MM72
4C/	4c/	4c/
=1	=1	=1
4.F\	4.A/ 4.f/	4.f/
8F\	8f/ 8a/	8a/
4A\	4f/ 4cc/	4cc\
4F\	4f/ 4a/	4a/
=2	=2	=2
4.C\ 4.c\	4.e/ 4.g/	4.g/
8E\ 8c\	8g/ 8b-/	8b-\
4F\ 4c\	4f/ 4a/	4a/
4D\	4f\ 4a\ 4ff\	4ff\
=3	=3	=3
4E\	4g\ 4cc\ 4ee\	4ee\
4F\	4f/ 4a/ 4dd/	4dd\
[4G\	4e/ 4g/ 4cc/	4cc\
4GG/ 4G/]	4d/ 4g/ 4bn/	4bn\
=4	=4	=4
4C/	2e/ 2g/ 2cc/	2cc\
4GG/	.	.
4CC/	4r	4r
=:|!	=:|!	=:|!
*>B	*>B	*>B
4C\ 4c\	4a\ 4cc\	4cc\
=5	=5	=5
4.A\ 4.c\	4.a\ 4.cc\	4.cc\
8A\ 8c\	8f#/ 8dd/	8dd\
4G\ 4d\	4g/ 4b-/	4b-\
4Fn\ 4d-\	4g/ 4b-/	4b-\
=6	=6	=6
4.E\ 4.c\	4.g/ 4.b-/	4.b-\
8C\ 8c\	8e/ 8cc/	8cc\
4F\ 4c\	4f/ 4a/	4a/
4E-\ 4A\	4c/ 4f/	4f/
=7	=7	=7
*^	*	*
4r	2D\	2B-/ 2f/ 2b-/	2b-\
2F/	.	.	.
.	2C\	2c/ 2f/ 2a/	2a/
4F/	.	.	.
=8	=8	=8	=8
*	*	*^	*
4r	2.BB-\	2.dd/	2.d\ 2.f\	2.dd\
4F/	.	.	.	.
4B-/	.	.	.	.
4BB-/	4BB-\	(8cc/L	4d\ 4g\	(8cc\L
.	.	8b-/J)	.	8b-\J)
*v	*v	*	*	*
=9	=9	=9	=9
[2C/	2f/ 2a/	2.c\	2a/
2CC/ 2C/]	2e/ 2g/	.	2g/
.	.	4B-\	.
*	*v	*v	*
=10	=10	=10
2FF/	2A/ 2c/ 2f/	2f/
4r	4r	4r
==	==	==
*-	*-	*-
!!!ENC: Craig Stuart Sapp
!!!END: 2004/06/06/
!!!EFL: 111/651
